src/assets/icons/nav_home.svg

<svg width="24" height="25" viewBox="0 0 24 25" fill="none" xmlns="http://www.w3.org/2000/svg">
<path d="M9.94321 19.7917V14.5833H13.9205V19.7917C13.9205 20.3646 14.3679 20.8333 14.9148 20.8333H17.8978C18.4446 20.8333 18.8921 20.3646 18.8921 19.7917V12.5H20.5824C21.0398 12.5 21.2586 11.9062 20.9105 11.5938L12.598 3.75C12.2202 3.39583 11.6435 3.39583 11.2657 3.75L2.95315 11.5938C2.61508 11.9062 2.82389 12.5 3.28128 12.5H4.97162V19.7917C4.97162 20.3646 5.41906 20.8333 5.96594 20.8333H8.94889C9.49577 20.8333 9.94321 20.3646 9.94321 19.7917Z" fill="#DADADA"/>
</svg>

<svg width="24" height="25" fill="none" xmlns="http://www.w3.org/2000/svg"><path d="M9.943 19.792v-5.209h3.978v5.209c0 .573.447 1.041.994 1.041h2.983c.547 0 .994-.468.994-1.041V12.5h1.69c.458 0 .677-.594.328-.906L12.598 3.75a.968.968 0 0 0-1.332 0l-8.313 7.844c-.338.312-.13.906.328.906h1.69v7.292c0 .573.448 1.041.995 1.041h2.983c.547 0 .994-.468.994-1.041Z" fill="#DADADA"/></svg>
